X: 041
T: Kiss me Sweetly
R: reel
B: Robert Bremner "A Collection of Scots Reels or Country Dances" p.4 #1
S: http://imslp.org/wiki/A_Collection_of_Scots_Reels_or_Country_Dances_(Bremner,_Robert)
Z: 2013 John Chambers <jc:trillian.mit.edu>
M: C|
L: 1/8
K: C
% - - - - - - - - - - - - - - - - - - - - - - - - -
V: 1
g |\
(a/g/f/e/ c)g egcg | (a/g/f/e/ c)g eddg |\
(a/g/f/e/ c)g egde | cAGE C/C/C C :|
|: F |\
(EG)(cG) (AG)(cG) | (EG)(cG) dDDF |\
EGcG EG ga | gede c/c/c c :|
% - - - - - - - - - - - - - - - - - - - - - - - - -
V: 2 clef=bass middle=d
z |\
c2c2 c2c2 | c2c2 d2d2 | c2c2 c2c2 | f2g2 c2c :|\
|: z c2c2
c2c2 | c2c2 d2d2 | c2c2 c2c2 | G2G2 C2C :|
% - - - - - - - - - - - - - - - - - - - - - - - - -

%%sep 1 1 500
%%sep 1 1 500
